X:841
T:Polska efter Sven Donat 
T:(Ma5-40)
S:Sven Donat
R:Polska
O:Småland
B:Sven Donats notbok
B:http://www.smus.se/earkiv/fmk/browselarge.php?lang=sw&katalogid=Ma+5&bildnr=00042
Z:Christian Fürst
N:Tonart och melodi enligt originaluppteckningen
M:3/4
L:1/16
K:Cm

|: c2>c2 g4 c4 | =BBcd G8 | e2d2c2e2d2c2 | d2c=B c8 | g2>c2 E2>c2 g2>c2 | a2c2F2A2 a4 | f2>B2 D2>B2 f2>B2 | g2>c2 E2>B2 g4 | e2dc g4 e2c2 | d2c=B c8 :| |: e2dc B4 A4 | GFED ^E8 | EGBd g2B2f2B2 | a2gf g8 | bede c'ede b2e2 | aB=AB gBAB f2B2 | gede f2B2c2e2 | e4 E8 | e2dc =B4 c4 | dc=B=A G8 | cGDG cege d2c2 | d2c=B c8 | gc=Bc EcBc gcBc | ac=Bc FcBc a4 | f=B=AB DBAB fBAB | gB=AB EBAB g4 | ec=Bc gcBc EcBc | d2c=B c4 c4 :|

(:musicend:)
(:music:)
